static/img/in-field/switches-dark.svg

<svg fill="none" height="162" viewBox="0 0 1087 162" width="1087" xmlns="http://www.w3.org/2000/svg"><path d="m0 0h1087v162h-1087z" fill="#353a40"/><rect fill="#90939f" height="32" rx="16" transform="matrix(1 0 0 -1 479.25 64)" width="64"/><path d="m504.583 48c0 5.1547-4.179 9.3334-9.333 9.3334-5.155 0-9.333-4.1787-9.333-9.3334 0-5.1546 4.178-9.3333 9.333-9.3333 5.154 0 9.333 4.1787 9.333 9.3333z" fill="#fff"/><path d="m560.409 57v-15.7051h1.826v14.0508h6.929v1.6543zm18.652 0-.355-1.6758h-.086c-.587.7376-1.174 1.239-1.762 1.5039-.58.2578-1.307.3867-2.18.3867-1.168 0-2.084-.3007-2.75-.9023-.659-.6016-.989-1.4574-.989-2.5674 0-2.3776 1.902-3.6237 5.705-3.7383l1.998-.0644v-.7305c0-.9238-.201-1.6042-.602-2.041-.394-.444-1.028-.666-1.901-.666-.981 0-2.091.3008-3.33.9023l-.548-1.3642c.58-.3151 1.214-.5622 1.901-.7412.695-.1791 1.389-.2686 2.084-.2686 1.404 0 2.442.3115 3.115.9346.681.623 1.021 1.622 1.021 2.997v8.0352zm-4.029-1.2568c1.11 0 1.98-.3044 2.611-.9131.637-.6087.956-1.461.956-2.5567v-1.0634l-1.784.0752c-1.418.0501-2.442.2721-3.072.666-.623.3867-.934.9918-.934 1.8154 0 .6445.193 1.1351.58 1.4717.394.3366.941.5049 1.643.5049zm14.763-10.71c1.547 0 2.746.53 3.599 1.5898.859 1.0528 1.289 2.5459 1.289 4.4795s-.434 3.4375-1.3 4.5118c-.86 1.067-2.056 1.6005-3.588 1.6005-.766 0-1.468-.1396-2.106-.4189-.63-.2865-1.16-.7233-1.589-1.3105h-.129l-.376 1.5146h-1.279v-16.7148h1.784v4.0605c0 .9095-.029 1.7259-.086 2.4492h.086c.83-1.1745 2.062-1.7617 3.695-1.7617zm-.258 1.4932c-1.217 0-2.095.3509-2.632 1.0527-.537.6947-.805 1.8691-.805 3.5234s.275 2.8396.827 3.5557c.551.709 1.436 1.0635 2.653 1.0635 1.096 0 1.912-.3975 2.449-1.1924.537-.8021.806-1.9515.806-3.4482 0-1.5326-.269-2.6749-.806-3.4268-.537-.752-1.368-1.1279-2.492-1.1279zm13.495 10.6884c-1.74 0-3.115-.5299-4.125-1.5898-1.002-1.0599-1.504-2.5316-1.504-4.415 0-1.8978.466-3.4053 1.397-4.5225.938-1.1172 2.195-1.6758 3.77-1.6758 1.476 0 2.643.487 3.502 1.461.86.9668 1.289 2.2451 1.289 3.8349v1.1279h-8.11c.036 1.3822.383 2.4314 1.042 3.1475.666.7162 1.601 1.0742 2.804 1.0742 1.267 0 2.521-.2649 3.759-.7949v1.5898c-.63.2722-1.228.4655-1.794.5801-.558.1218-1.235.1826-2.03.1826zm-.483-10.7099c-.945 0-1.701.3079-2.267.9238-.558.6159-.888 1.4681-.988 2.5567h6.155c0-1.1244-.25-1.9838-.752-2.5782-.501-.6015-1.217-.9023-2.148-.9023zm9.896 10.4951h-1.783v-16.7148h1.783z" fill="#fff"/><rect fill="#019aeb" height="32" rx="16" transform="matrix(1 0 0 -1 478.5 130)" width="64"/><g fill="#fff"><path d="m539.5 114c0 7.18-5.82 13-13 13s-13-5.82-13-13 5.82-13 13-13 13 5.82 13 13z"/><path d="m559.659 123v-15.705h1.826v14.051h6.929v1.654zm18.652 0-.355-1.676h-.086c-.587.738-1.174 1.239-1.762 1.504-.58.258-1.307.387-2.18.387-1.168 0-2.084-.301-2.75-.903-.659-.601-.989-1.457-.989-2.567 0-2.377 1.902-3.624 5.705-3.738l1.998-.065v-.73c0-.924-.201-1.604-.602-2.041-.394-.444-1.028-.666-1.901-.666-.981 0-2.091.301-3.33.902l-.548-1.364c.58-.315 1.214-.562 1.901-.741.695-.179 1.389-.269 2.084-.269 1.404 0 2.442.312 3.115.935.681.623 1.021 1.622 1.021 2.997v8.035zm-4.029-1.257c1.11 0 1.98-.304 2.611-.913.637-.609.956-1.461.956-2.557v-1.063l-1.784.075c-1.418.05-2.442.272-3.072.666-.623.387-.934.992-.934 1.816 0 .644.193 1.135.58 1.471.394.337.941.505 1.643.505zm14.763-10.71c1.547 0 2.746.53 3.599 1.59.859 1.053 1.289 2.546 1.289 4.48 0 1.933-.434 3.437-1.3 4.511-.86 1.067-2.056 1.601-3.588 1.601-.766 0-1.468-.14-2.106-.419-.63-.287-1.16-.723-1.589-1.311h-.129l-.376 1.515h-1.279v-16.715h1.784v4.061c0 .909-.029 1.726-.086 2.449h.086c.83-1.175 2.062-1.762 3.695-1.762zm-.258 1.493c-1.217 0-2.095.351-2.632 1.053-.537.695-.805 1.869-.805 3.524 0 1.654.275 2.839.827 3.555.551.709 1.436 1.064 2.653 1.064 1.096 0 1.912-.398 2.449-1.193.537-.802.806-1.951.806-3.448 0-1.532-.269-2.675-.806-3.427s-1.368-1.128-2.492-1.128zm13.495 10.689c-1.74 0-3.115-.53-4.125-1.59-1.002-1.06-1.504-2.532-1.504-4.415 0-1.898.466-3.405 1.397-4.522.938-1.118 2.195-1.676 3.77-1.676 1.476 0 2.643.487 3.502 1.461.86.966 1.289 2.245 1.289 3.835v1.128h-8.11c.036 1.382.383 2.431 1.042 3.147.666.716 1.601 1.074 2.804 1.074 1.267 0 2.521-.265 3.759-.795v1.59c-.63.272-1.228.466-1.794.58-.558.122-1.235.183-2.03.183zm-.483-10.71c-.945 0-1.701.308-2.267.924-.558.616-.888 1.468-.988 2.556h6.155c0-1.124-.25-1.983-.752-2.578-.501-.601-1.217-.902-2.148-.902zm9.896 10.495h-1.783v-16.715h1.783z"/></g></svg>

<svg width="1087" height="162" viewBox="0 0 1087 162" fill="none" xmlns="http://www.w3.org/2000/svg">
<rect width="1087" height="162" fill="#353A40"/>
<rect width="64" height="32" rx="16" transform="matrix(1 0 0 -1 479.25 64)" fill="#90939F"/>
<path d="M504.583 48C504.583 53.1547 500.404 57.3334 495.25 57.3334C490.095 57.3334 485.917 53.1547 485.917 48C485.917 42.8454 490.095 38.6667 495.25 38.6667C500.404 38.6667 504.583 42.8454 504.583 48Z" fill="#fff"/>
<path d="M560.409 57V41.2949H562.235V55.3457H569.164V57H560.409ZM579.061 57L578.706 55.3242H578.62C578.033 56.0618 577.446 56.5632 576.858 56.8281C576.278 57.0859 575.551 57.2148 574.678 57.2148C573.51 57.2148 572.594 56.9141 571.928 56.3125C571.269 55.7109 570.939 54.8551 570.939 53.7451C570.939 51.3675 572.841 50.1214 576.644 50.0068L578.642 49.9424V49.2119C578.642 48.2881 578.441 47.6077 578.04 47.1709C577.646 46.7269 577.012 46.5049 576.139 46.5049C575.158 46.5049 574.048 46.8057 572.809 47.4072L572.261 46.043C572.841 45.7279 573.475 45.4808 574.162 45.3018C574.857 45.1227 575.551 45.0332 576.246 45.0332C577.65 45.0332 578.688 45.3447 579.361 45.9678C580.042 46.5908 580.382 47.5898 580.382 48.9648V57H579.061ZM575.032 55.7432C576.142 55.7432 577.012 55.4388 577.643 54.8301C578.28 54.2214 578.599 53.3691 578.599 52.2734V51.21L576.815 51.2852C575.397 51.3353 574.373 51.5573 573.743 51.9512C573.12 52.3379 572.809 52.943 572.809 53.7666C572.809 54.4111 573.002 54.9017 573.389 55.2383C573.783 55.5749 574.33 55.7432 575.032 55.7432ZM589.795 45.0332C591.342 45.0332 592.541 45.5632 593.394 46.623C594.253 47.6758 594.683 49.1689 594.683 51.1025C594.683 53.0361 594.249 54.54 593.383 55.6143C592.523 56.6813 591.327 57.2148 589.795 57.2148C589.029 57.2148 588.327 57.0752 587.689 56.7959C587.059 56.5094 586.529 56.0726 586.1 55.4854H585.971L585.595 57H584.316V40.2852H586.1V44.3457C586.1 45.2552 586.071 46.0716 586.014 46.7949H586.1C586.93 45.6204 588.162 45.0332 589.795 45.0332ZM589.537 46.5264C588.32 46.5264 587.442 46.8773 586.905 47.5791C586.368 48.2738 586.1 49.4482 586.1 51.1025C586.1 52.7568 586.375 53.9421 586.927 54.6582C587.478 55.3672 588.363 55.7217 589.58 55.7217C590.676 55.7217 591.492 55.3242 592.029 54.5293C592.566 53.7272 592.835 52.5778 592.835 51.0811C592.835 49.5485 592.566 48.4062 592.029 47.6543C591.492 46.9023 590.661 46.5264 589.537 46.5264ZM603.032 57.2148C601.292 57.2148 599.917 56.6849 598.907 55.625C597.905 54.5651 597.403 53.0934 597.403 51.21C597.403 49.3122 597.869 47.8047 598.8 46.6875C599.738 45.5703 600.995 45.0117 602.57 45.0117C604.046 45.0117 605.213 45.4987 606.072 46.4727C606.932 47.4395 607.361 48.7178 607.361 50.3076V51.4355H599.251C599.287 52.8177 599.634 53.8669 600.293 54.583C600.959 55.2992 601.894 55.6572 603.097 55.6572C604.364 55.6572 605.618 55.3923 606.856 54.8623V56.4521C606.226 56.7243 605.628 56.9176 605.062 57.0322C604.504 57.154 603.827 57.2148 603.032 57.2148ZM602.549 46.5049C601.604 46.5049 600.848 46.8128 600.282 47.4287C599.724 48.0446 599.394 48.8968 599.294 49.9854H605.449C605.449 48.861 605.199 48.0016 604.697 47.4072C604.196 46.8057 603.48 46.5049 602.549 46.5049ZM612.445 57H610.662V40.2852H612.445V57Z" fill="#fff"/>
<rect width="64" height="32" rx="16" transform="matrix(1 0 0 -1 478.5 130)" fill="#019AEB"/>
<path d="M539.5 114C539.5 121.18 533.68 127 526.5 127C519.32 127 513.5 121.18 513.5 114C513.5 106.82 519.32 101 526.5 101C533.68 101 539.5 106.82 539.5 114Z" fill="#fff"/>
<path d="M559.659 123V107.295H561.485V121.346H568.414V123H559.659ZM578.311 123L577.956 121.324H577.87C577.283 122.062 576.696 122.563 576.108 122.828C575.528 123.086 574.801 123.215 573.928 123.215C572.76 123.215 571.844 122.914 571.178 122.312C570.519 121.711 570.189 120.855 570.189 119.745C570.189 117.368 572.091 116.121 575.894 116.007L577.892 115.942V115.212C577.892 114.288 577.691 113.608 577.29 113.171C576.896 112.727 576.262 112.505 575.389 112.505C574.408 112.505 573.298 112.806 572.059 113.407L571.511 112.043C572.091 111.728 572.725 111.481 573.412 111.302C574.107 111.123 574.801 111.033 575.496 111.033C576.9 111.033 577.938 111.345 578.611 111.968C579.292 112.591 579.632 113.59 579.632 114.965V123H578.311ZM574.282 121.743C575.392 121.743 576.262 121.439 576.893 120.83C577.53 120.221 577.849 119.369 577.849 118.273V117.21L576.065 117.285C574.647 117.335 573.623 117.557 572.993 117.951C572.37 118.338 572.059 118.943 572.059 119.767C572.059 120.411 572.252 120.902 572.639 121.238C573.033 121.575 573.58 121.743 574.282 121.743ZM589.045 111.033C590.592 111.033 591.791 111.563 592.644 112.623C593.503 113.676 593.933 115.169 593.933 117.103C593.933 119.036 593.499 120.54 592.633 121.614C591.773 122.681 590.577 123.215 589.045 123.215C588.279 123.215 587.577 123.075 586.939 122.796C586.309 122.509 585.779 122.073 585.35 121.485H585.221L584.845 123H583.566V106.285H585.35V110.346C585.35 111.255 585.321 112.072 585.264 112.795H585.35C586.18 111.62 587.412 111.033 589.045 111.033ZM588.787 112.526C587.57 112.526 586.692 112.877 586.155 113.579C585.618 114.274 585.35 115.448 585.35 117.103C585.35 118.757 585.625 119.942 586.177 120.658C586.728 121.367 587.613 121.722 588.83 121.722C589.926 121.722 590.742 121.324 591.279 120.529C591.816 119.727 592.085 118.578 592.085 117.081C592.085 115.549 591.816 114.406 591.279 113.654C590.742 112.902 589.911 112.526 588.787 112.526ZM602.282 123.215C600.542 123.215 599.167 122.685 598.157 121.625C597.155 120.565 596.653 119.093 596.653 117.21C596.653 115.312 597.119 113.805 598.05 112.688C598.988 111.57 600.245 111.012 601.82 111.012C603.296 111.012 604.463 111.499 605.322 112.473C606.182 113.439 606.611 114.718 606.611 116.308V117.436H598.501C598.537 118.818 598.884 119.867 599.543 120.583C600.209 121.299 601.144 121.657 602.347 121.657C603.614 121.657 604.868 121.392 606.106 120.862V122.452C605.476 122.724 604.878 122.918 604.312 123.032C603.754 123.154 603.077 123.215 602.282 123.215ZM601.799 112.505C600.854 112.505 600.098 112.813 599.532 113.429C598.974 114.045 598.644 114.897 598.544 115.985H604.699C604.699 114.861 604.449 114.002 603.947 113.407C603.446 112.806 602.73 112.505 601.799 112.505ZM611.695 123H609.912V106.285H611.695V123Z" fill="#fff"/>
</svg>
